svgs/sharp-thin/circle-sort.svg

<svg xmlns="http://www.w3.org/2000/svg" viewBox="0 0 512 512"><!--! Font Awesome Pro 6.6.0 by @fontawesome - https://fontawesome.com License - https://fontawesome.com/license (Commercial License) Copyright 2024 Fonticons, Inc. --><path d="M256 16a240 240 0 1 1 0 480 240 240 0 1 1 0-480zm0 496A256 256 0 1 0 256 0a256 256 0 1 0 0 512zM160 199.4l96-82.3 96 82.3 0 8.6-192 0 0-8.6zM256 96L144 192l0 16 0 16 16 0 192 0 16 0 0-16 0-16L256 96zM160 312.6l0-8.6 192 0 0 8.6-96 82.3-96-82.3zM256 416l112-96 0-16 0-16-16 0-192 0-16 0 0 16 0 16 112 96z"/></svg>

<svg xmlns="http://www.w3.org/2000/svg" viewBox="0 0 512 512"><!--! Font Awesome Pro 6.5.2 by @fontawesome - https://fontawesome.com License - https://fontawesome.com/license (Commercial License) Copyright 2024 Fonticons, Inc. --><path d="M256 16a240 240 0 1 1 0 480 240 240 0 1 1 0-480zm0 496A256 256 0 1 0 256 0a256 256 0 1 0 0 512zM160 199.4l96-82.3 96 82.3V208H160v-8.6zM256 96L144 192v16 16h16H352h16V208 192L256 96zM160 312.6V304H352v8.6l-96 82.3-96-82.3zM256 416l112-96V304 288H352 160 144v16 16l112 96z"/></svg>
